frontend/public/svg/currency/yen.svg

<svg width="163" height="160" viewBox="0 0 163 160" fill="none" xmlns="http://www.w3.org/2000/svg">
<g clip-path="url(#clip0)">
<path d="M89.6053 81.1967C93.0583 80.963 95.7231 80.69 98.3917 80.6348C100.155 80.5988 102.099 80.4754 103.635 81.1422C104.846 81.6673 106.194 83.2799 106.316 84.5217C106.437 85.7635 105.419 87.6288 104.327 88.3455C102.775 89.2099 101.024 89.6569 99.2476 89.6424C94.6696 89.8091 90.0825 89.6989 84.9309 89.6989C85.3825 93.7025 85.6968 97.3354 86.2961 100.918C86.3886 101.473 87.7715 102.156 88.5821 102.189C92.7315 102.356 96.8913 102.265 101.042 102.404C102.493 102.39 103.93 102.679 105.262 103.253C106.21 103.726 107.382 105.025 107.335 105.893C107.254 106.523 107.029 107.126 106.679 107.655C106.328 108.184 105.86 108.626 105.312 108.945C103.534 109.615 101.65 109.957 99.7503 109.954C95.7382 110.093 91.7188 109.997 87.3869 109.997C87.633 114 87.9015 117.652 88.0643 121.308C88.1673 123.324 88.1522 125.343 88.0183 127.356C87.9389 128.446 87.7335 129.743 87.0791 130.52C86.2915 131.455 84.9572 132.485 83.8808 132.461C83.2421 132.386 82.6304 132.16 82.0968 131.801C81.5626 131.443 81.1222 130.962 80.8117 130.398C80.009 128.076 79.5017 125.662 79.3022 123.213C78.8696 118.981 78.6931 114.722 78.3826 110.087C77.2472 110.003 76.1832 109.854 75.1193 109.856C70.1791 109.871 65.2385 109.978 60.2995 109.934C58.9622 109.907 57.6383 109.663 56.3788 109.212C55.6751 108.981 55.0704 108.518 54.6624 107.9C54.2544 107.281 54.0672 106.543 54.131 105.805C54.0828 105.066 54.2919 104.333 54.7239 103.731C55.1559 103.128 55.7835 102.695 56.4993 102.504C57.7832 102.131 59.1114 101.929 60.4483 101.905C66.0389 101.839 71.6302 101.878 77.2281 101.878V90.0441C76.0067 89.9535 75.0478 89.8196 74.0895 89.8216C69.4866 89.8301 64.8833 89.8997 60.2797 89.8905C59.0462 89.9365 57.8123 89.8157 56.6108 89.5322C54.7587 89.0071 53.3742 87.8756 53.5337 85.6906C53.5394 84.7731 53.9051 83.8949 54.5521 83.2444C55.1991 82.5934 56.0754 82.2232 56.9929 82.212C60.2319 81.9252 63.4871 81.8025 66.7379 81.6784C68.6327 81.6062 70.5322 81.6653 73.2455 81.6653C71.9761 80.2607 71.22 79.3681 70.4048 78.53C61.627 69.5119 53.172 60.2183 45.8217 49.9722C44.7131 48.4272 43.6462 46.8415 42.6919 45.1981C41.8334 43.7187 41.6582 42.1132 43.2399 40.9869C44.8558 39.8337 46.2243 40.6417 47.342 41.9445C49.2415 44.1597 51.1488 46.3722 52.9747 48.6464C61.3634 59.0822 70.9069 68.4079 80.75 77.8369C81.4864 77.0191 82.1717 76.3457 82.7558 75.5942C90.1238 66.1114 97.44 56.5881 104.87 47.1545C106.301 45.4349 107.918 43.8793 109.691 42.5162C111.091 41.384 112.937 41.1346 114.368 42.3153C115.989 43.651 115.827 45.597 114.788 47.2247C113.102 49.8697 111.282 52.4381 109.389 54.9407C103.569 62.6376 97.6829 70.2857 91.833 77.9609C91.237 78.7492 90.7106 79.5893 89.6053 81.1967Z" fill="black"/>
<path d="M161.781 73.2751C159.934 57.0687 153.429 41.7454 143.053 29.1604C134.501 18.6662 125.301 11.1873 114.929 6.30412C106.835 2.40449 97.9683 0.37386 88.9837 0.362305C86.2238 0.366804 83.4665 0.546939 80.7289 0.901749C69.3375 2.37917 57.7921 5.68388 44.4048 11.3087C26.2964 18.9222 13.6881 32.0063 6.94031 50.1888C2.20691 62.6746 0.382487 76.0757 1.60565 89.3724C3.02859 104.311 6.6233 115.888 12.9156 125.799C22.0066 140.107 33.459 149.526 47.9319 154.591C56.7059 157.666 66.3639 159.21 78.3143 159.453C85.3489 159.453 91.9005 158.604 98.2302 157.781L99.4306 157.626C113.256 155.838 124.998 150.848 135.332 142.384C145.049 134.569 152.405 124.209 156.577 112.459C161.526 98.4246 163.225 85.6037 161.781 73.2751ZM145.46 117.835C137.637 133.677 124.48 144.07 106.337 148.723C104.159 149.283 101.906 149.687 99.5251 150.113C98.3437 150.321 97.1105 150.544 95.8155 150.793C90.171 151.643 82.5582 151.772 78.3622 151.772C76.4942 151.772 75.2997 151.744 75.2662 151.744C64.2455 151.613 54.7639 149.741 46.2866 146.026C34.9897 141.075 25.9589 132.719 18.6887 120.485C14.2978 113.107 11.5129 104.372 9.9278 93.002C7.89361 78.5383 9.67235 63.7943 15.0875 50.2295C20.7858 35.7763 31.0365 24.8108 45.5508 17.641C48.9027 15.9824 62.5259 11.9893 66.1068 11.2614C71.1497 10.2552 76.2626 9.63965 81.4004 9.42037C101.721 8.93468 109.746 12.2052 122.158 21.6814C135.154 31.602 144.314 44.0717 149.385 58.7409C156.272 78.7247 154.956 98.6064 145.46 117.835Z" fill="black"/>
</g>
<defs>
<clipPath id="clip0">
<rect width="162.115" height="159.49" fill="white" transform="translate(0.816406 0.13501)"/>
</clipPath>
</defs>
</svg>

<svg xmlns="http://www.w3.org/2000/svg" width="163" height="160" fill="none" viewBox="0 0 163 160"><g fill="#000" clip-path="url(#a)"><path d="M89.605 81.197c3.453-.234 6.118-.507 8.787-.562 1.763-.036 3.707-.16 5.243.507 1.211.525 2.559 2.138 2.681 3.38s-.897 3.107-1.989 3.823a10.27 10.27 0 0 1-5.08 1.297c-4.577.167-9.165.057-14.316.057.451 4.004.766 7.636 1.365 11.219.093.555 1.475 1.238 2.286 1.271 4.15.167 8.31.076 12.46.215a10.4 10.4 0 0 1 4.22.849c.948.473 2.12 1.772 2.073 2.64a4.14 4.14 0 0 1-2.023 3.052 15.7 15.7 0 0 1-5.562 1.009c-4.012.139-8.031.043-12.363.043.246 4.003.514 7.655.677 11.311a52 52 0 0 1-.046 6.048c-.08 1.09-.284 2.387-.939 3.164-.787.935-2.122 1.965-3.198 1.941a4.04 4.04 0 0 1-3.07-2.063 29.3 29.3 0 0 1-1.509-7.185c-.432-4.232-.609-8.491-.92-13.126-1.135-.084-2.199-.233-3.263-.231-4.94.015-9.88.122-14.82.078a12.4 12.4 0 0 1-3.92-.722 3.286 3.286 0 0 1-2.248-3.407 3.2 3.2 0 0 1 2.368-3.301 15 15 0 0 1 3.95-.599c5.59-.066 11.181-.027 16.78-.027V90.044c-1.222-.09-2.181-.224-3.14-.222-4.602.008-9.206.078-13.81.069a13.8 13.8 0 0 1-3.668-.359c-1.852-.525-3.237-1.656-3.077-3.841a3.5 3.5 0 0 1 3.459-3.479c3.239-.287 6.494-.41 9.745-.534 1.895-.072 3.794-.013 6.508-.013-1.27-1.404-2.026-2.297-2.841-3.135-8.778-9.018-17.233-18.312-24.583-28.558-1.109-1.545-2.176-3.13-3.13-4.774-.859-1.48-1.034-3.085.548-4.211 1.616-1.153 2.984-.345 4.102.957 1.9 2.216 3.807 4.428 5.633 6.702 8.388 10.436 17.932 19.762 27.775 29.19.736-.817 1.422-1.49 2.006-2.242 7.368-9.483 14.684-19.006 22.114-28.44a30.3 30.3 0 0 1 4.821-4.638c1.4-1.132 3.246-1.381 4.677-.2 1.621 1.335 1.459 3.281.42 4.909-1.686 2.645-3.506 5.213-5.399 7.716-5.82 7.697-11.706 15.345-17.556 23.02-.596.788-1.122 1.628-2.228 3.236"/><path d="M161.781 73.275a84.36 84.36 0 0 0-18.728-44.115c-8.552-10.494-17.752-17.973-28.124-22.856A59.95 59.95 0 0 0 88.984.362a65 65 0 0 0-8.255.54C69.338 2.379 57.792 5.684 44.405 11.309 26.296 18.922 13.688 32.006 6.94 50.189a87.84 87.84 0 0 0-5.334 39.183c1.423 14.939 5.017 26.516 11.31 36.427 9.09 14.308 20.543 23.727 35.016 28.792 8.774 3.075 18.432 4.619 30.382 4.862 7.035 0 13.587-.849 19.916-1.672l1.2-.155c13.826-1.788 25.568-6.778 35.902-15.242a67.3 67.3 0 0 0 21.245-29.925c4.949-14.034 6.648-26.855 5.204-39.184m-16.321 44.56c-7.823 15.842-20.98 26.235-39.123 30.888-2.178.56-4.431.964-6.812 1.39-1.181.208-2.415.431-3.71.68-5.644.85-13.257.979-17.453.979-1.868 0-3.062-.028-3.096-.028-11.02-.131-20.502-2.003-28.98-5.718-11.296-4.951-20.327-13.307-27.597-25.541-4.391-7.378-7.176-16.113-8.761-27.483a83.86 83.86 0 0 1 5.16-42.772c5.698-14.454 15.949-25.42 30.462-32.59 3.352-1.659 16.975-5.652 20.556-6.38A100 100 0 0 1 81.4 9.421c20.321-.486 28.346 2.784 40.758 12.26 12.996 9.921 22.156 22.39 27.227 37.06 6.887 19.984 5.571 39.865-3.925 59.094"/></g><defs><clipPath id="a"><path fill="#fff" d="M.816.135h162.115v159.49H.816z"/></clipPath></defs></svg>
